src/assets/header/brainwave.svg

<svg xmlns="http://www.w3.org/2000/svg" width="190" height="40" viewBox="0 0 190 40"><g fill="none" fill-rule="evenodd"><path fill="#FFF" fill-rule="nonzero" d="M56 30.7038 56 10.3402 64.4915 10.3402C66.0161 10.3402 67.2921 10.5556 68.3196 10.9865 69.3537 11.4174 70.1293 12.0206 70.6463 12.7962 71.17 13.5717 71.4318 14.4699 71.4318 15.4908 71.4318 16.2663 71.2694 16.959 70.9446 17.5689 70.6198 18.1721 70.1723 18.6726 69.6023 19.0703 69.0322 19.468 68.3726 19.7464 67.6236 19.9055L67.6236 20.1044C68.4455 20.1442 69.2045 20.3662 69.9006 20.7706 70.6032 21.175 71.1667 21.7384 71.5909 22.4609 72.0152 23.1768 72.2273 24.0253 72.2273 25.0064 72.2273 26.1001 71.9489 27.0779 71.392 27.9396 70.8352 28.7947 70.0298 29.4709 68.9759 29.968 67.9219 30.4586 66.6425 30.7038 65.1378 30.7038L56 30.7038ZM60.9219 26.7365 63.9645 26.7365C65.0317 26.7365 65.8172 26.5343 66.321 26.13 66.8314 25.7256 67.0866 25.1622 67.0866 24.4396 67.0866 23.916 66.964 23.4652 66.7188 23.0874 66.4735 22.7029 66.1255 22.4079 65.6747 22.2024 65.224 21.9903 64.6837 21.8842 64.054 21.8842L60.9219 21.8842 60.9219 26.7365ZM60.9219 18.7124 63.6463 18.7124C64.1832 18.7124 64.6605 18.6229 65.0781 18.4439 65.4957 18.2649 65.8205 18.0064 66.0526 17.6683 66.2912 17.3303 66.4105 16.9226 66.4105 16.4453 66.4105 15.7625 66.1686 15.2256 65.6847 14.8345 65.2008 14.4434 64.5478 14.2479 63.7259 14.2479L60.9219 14.2479 60.9219 18.7124ZM73.4737 30.7038 73.4737 15.4311 78.1968 15.4311 78.1968 18.2152 78.3559 18.2152C78.6343 17.2076 79.0883 16.4586 79.7181 15.968 80.3478 15.4709 81.0803 15.2223 81.9155 15.2223 82.1409 15.2223 82.3729 15.2389 82.6115 15.272 82.8502 15.2985 83.0722 15.3416 83.2777 15.4013L83.2777 19.6271C83.0457 19.5476 82.7408 19.4846 82.363 19.4382 81.9917 19.3918 81.6603 19.3686 81.3686 19.3686 80.7919 19.3686 80.2716 19.4979 79.8076 19.7564 79.3502 20.0083 78.9889 20.3629 78.7237 20.8203 78.4652 21.2711 78.336 21.8014 78.336 22.4112L78.336 30.7038 73.4737 30.7038ZM87.8701 30.9624C86.8957 30.9624 86.0306 30.8 85.2749 30.4751 84.5259 30.1437 83.9326 29.6465 83.4951 28.9837 83.0642 28.3142 82.8488 27.4756 82.8488 26.468 82.8488 25.6196 82.9979 24.9036 83.2962 24.3203 83.5945 23.737 84.0055 23.263 84.5292 22.8984 85.0529 22.5339 85.6561 22.2588 86.3388 22.0732 87.0216 21.8809 87.7508 21.7517 88.5263 21.6854 89.3947 21.6058 90.094 21.523 90.6243 21.4368 91.1546 21.344 91.5391 21.2147 91.7778 21.049 92.023 20.8767 92.1457 20.6347 92.1457 20.3232L92.1457 20.2734C92.1457 19.763 91.97 19.3686 91.6187 19.0902 91.2673 18.8118 90.7934 18.6726 90.1968 18.6726 89.5538 18.6726 89.0368 18.8118 88.6457 19.0902 88.2546 19.3686 88.006 19.7531 87.8999 20.2436L83.4155 20.0845C83.5481 19.1565 83.8895 18.3279 84.4397 17.5987 84.9965 16.8629 85.7588 16.2862 86.7266 15.8686 87.7011 15.4444 88.871 15.2322 90.2366 15.2322 91.211 15.2322 92.1092 15.3482 92.9312 15.5803 93.7531 15.8056 94.469 16.1371 95.0789 16.5746 95.6887 17.0054 96.159 17.5357 96.491 18.1655 96.829 18.7952 96.998 19.5144 96.998 20.3232L96.998 30.7038 92.4241 30.7038 92.4241 28.576 92.3047 28.576C92.033 29.093 91.685 29.5305 91.2607 29.8885 90.8431 30.2465 90.3493 30.5149 89.7792 30.6939 89.2157 30.8729 88.5794 30.9624 87.8701 30.9624ZM89.3715 27.7805C89.8952 27.7805 90.3658 27.6745 90.7834 27.4624 91.2077 27.2502 91.5457 26.9586 91.7976 26.5874 92.0495 26.2095 92.1755 25.772 92.1755 25.2749L92.1755 23.8232C92.0363 23.8961 91.8672 23.9624 91.6684 24.022 91.4761 24.0817 91.264 24.138 91.032 24.1911 90.8 24.2441 90.5614 24.2905 90.3161 24.3303 90.0708 24.37 89.8355 24.4065 89.6101 24.4396 89.1528 24.5125 88.7617 24.6252 88.4368 24.7777 88.1187 24.9302 87.8734 25.129 87.7011 25.3743 87.5353 25.6129 87.4525 25.898 87.4525 26.2294 87.4525 26.7332 87.6315 27.1177 87.9894 27.3828 88.354 27.648 88.8147 27.7805 89.3715 27.7805ZM98.851 30.7038 98.851 15.4311 103.713 15.4311 103.713 30.7038 98.851 30.7038ZM101.287 13.6513C100.604 13.6513 100.018 13.4259 99.527 12.9751 99.037 12.5178 98.791 11.9676 98.791 11.3246 98.791 10.6882 99.037 10.1447 99.527 9.6939 100.018 9.2365 100.604 9.0078 101.287 9.0078 101.976 9.0078 102.563 9.2365 103.047 9.6939 103.537 10.1447 103.783 10.6882 103.783 11.3246 103.783 11.9676 103.537 12.5178 103.047 12.9751 102.563 13.4259 101.976 13.6513 101.287 13.6513ZM110.55 21.9936 110.55 30.7038 105.688 30.7038 105.688 15.4311 110.312 15.4311 110.312 18.2351 110.481 18.2351C110.819 17.3004 111.395 16.5679 112.211 16.0376 113.026 15.5007 113.997 15.2322 115.124 15.2322 116.198 15.2322 117.129 15.4742 117.918 15.9581 118.714 16.4354 119.33 17.1049 119.768 17.9666 120.212 18.8217 120.43 19.8227 120.424121 20.9695L120.424121 30.7038 115.562 30.7038 115.562 21.924C115.568 21.0755 115.353 20.4126 114.915 19.9354 114.484 19.4581 113.884 19.2195 113.116 19.2195 112.605 19.2195 112.154 19.3322 111.763 19.5575 111.379 19.7763 111.08 20.0911 110.868 20.5021 110.663 20.9131 110.557 21.4103 110.55 21.9936Z"/><polygon fill="#FFF" fill-rule="nonzero" points="125.168 30.704 121.19 15.431 126.073 15.431 128.131 25.215 128.26 25.215 130.467 15.431 135.23 15.431 137.497 25.146 137.627 25.146 139.625 15.431 144.507 15.431 140.52 30.704 135.32 30.704 132.933 21.805 132.764 21.805 130.378 30.704"/><path fill="#FFF" fill-rule="nonzero" d="M149.644,30.9624 C148.67,30.9624 147.805,30.8 147.049,30.4751 C146.3,30.1437 145.706,29.6465 145.269,28.9837 C144.838,28.3142 144.623,27.4756 144.623,26.468 C144.623,25.6196 144.772,24.9036 145.07,24.3203 C145.368,23.737 145.779,23.263 146.303,22.8984 C146.827,22.5339 147.43,22.2588 148.113,22.0732 C148.796,21.8809 149.525,21.7517 150.3,21.6854 C151.169,21.6058 151.868,21.523 152.398,21.4368 C152.929,21.344 153.313,21.2147 153.552,21.049 C153.797,20.8767 153.92,20.6347 153.92,20.3232 L153.92,20.2734 C153.92,19.763 153.744,19.3686 153.393,19.0902 C153.041,18.8118 152.567,18.6726 151.971,18.6726 C151.328,18.6726 150.811,18.8118 150.42,19.0902 C150.028,19.3686 149.78,19.7531 149.674,20.2436 L145.189,20.0845 C145.322,19.1565 145.663,18.3279 146.214,17.5987 C146.77,16.8629 147.533,16.2862 148.501,15.8686 C149.475,15.4444 150.645,15.2322 152.01,15.2322 C152.985,15.2322 153.883,15.3482 154.705,15.5803 C155.527,15.8056 156.243,16.1371 156.853,16.5746 C157.463,17.0054 157.933,17.5357 158.265,18.1655 C158.603,18.7952 158.772,19.5144 158.772,20.3232 L158.772,30.7038 L154.198,30.7038 L154.198,28.576 L154.079,28.576 C153.807,29.093 153.459,29.5305 153.035,29.8885 C152.617,30.2465 152.123,30.5149 151.553,30.6939 C150.99,30.8729 150.353,30.9624 149.644,30.9624 Z M151.145,27.7805 C151.669,27.7805 152.14,27.6745 152.557,27.4624 C152.982,27.2502 153.32,26.9586 153.572,26.5874 C153.823,26.2095 153.949,25.772 153.949,25.2749 L153.949,23.8232 C153.81,23.8961 153.641,23.9624 153.442,24.022 C153.25,24.0817 153.038,24.138 152.806,24.1911 C152.574,24.2441 152.335,24.2905 152.09,24.3303 C151.845,24.37 151.609,24.4065 151.384,24.4396 C150.927,24.5125 150.536,24.6252 150.211,24.7777 C149.893,24.9302 149.647,25.129 149.475,25.3743 C149.309,25.6129 149.226,25.898 149.226,26.2294 C149.226,26.7332 149.405,27.1177 149.763,27.3828 C150.128,27.648 150.589,27.7805 151.145,27.7805 Z"/><polygon fill="#FFF" fill-rule="nonzero" points="174.893 15.431 169.653 30.704 164.085 30.704 158.855 15.431 163.976 15.431 166.79 25.951 166.949 25.951 169.773 15.431"/><path fill="#FFF" fill-rule="nonzero" d="M182.285,30.9922 C180.687,30.9922 179.308,30.6773 178.148,30.0476 C176.995,29.4112 176.107,28.5064 175.484,27.3331 C174.867,26.1532 174.559,24.7512 174.559,23.1271 C174.559,21.5495 174.87,20.1707 175.493,18.9908 C176.117,17.8042 176.995,16.8828 178.128,16.2266 C179.262,15.5637 180.598,15.2322 182.136,15.2322 C183.223,15.2322 184.217,15.4013 185.118,15.7393 C186.02,16.0774 186.799,16.5779 187.455,17.2408 C188.111,17.9036 188.622,18.7223 188.986,19.6967 C189.351,20.6645 189.533,21.7749 189.533,23.0277 L189.533,24.2408 L176.259,24.2408 L176.259,21.4169 L185.009,21.4169 C185.002,20.8999 184.88,20.4392 184.641,20.0348 C184.403,19.6304 184.074,19.3156 183.657,19.0902 C183.246,18.8582 182.772,18.7422 182.235,18.7422 C181.691,18.7422 181.204,18.8648 180.773,19.1101 C180.342,19.3487 180.001,19.6768 179.749,20.0945 C179.497,20.5054 179.365,20.9728 179.351,21.4965 L179.351,24.37 C179.351,24.9931 179.474,25.54 179.719,26.0107 C179.965,26.4747 180.313,26.8359 180.763,27.0945 C181.214,27.353 181.751,27.4822 182.374,27.4822 C182.805,27.4822 183.196,27.4226 183.547,27.3033 C183.899,27.184 184.2,27.0083 184.452,26.7763 C184.704,26.5443 184.893,26.2592 185.019,25.9212 L189.484,26.0504 C189.298,27.0514 188.89,27.9231 188.261,28.6655 C187.637,29.4013 186.819,29.9747 185.805,30.3857 C184.79,30.79 183.617,30.9922 182.285,30.9922 Z"/><polygon fill="#AC6AFF" fill-rule="nonzero" points="35.213 11.501 35.206 6.288 25.586 0 25.586 4.022 31.931 8.2 31.936 11.402 28.988 13.398 26.977 11.931 26.977 9.446 23.7 7.204 23.7 11.727 18.505 14.915 18.495 23.335 14.822 25.403 12.937 23.926 12.937 21.488 15.169 19.959 15.169 19.939 15.169 16.166 11.152 18.854 8.081 16.856 5.276 18.693 9.659 21.694 9.659 23.536 6.5 25.674 3.277 23.492 3.277 16.23 8.062 12.991 8.066 9.875 14.203 13.827 19.361 10.394 16.216 8.559 14.159 9.947 9.677 6.983 14.731 4.036 19.11 6.603 19.11 2.775 14.736 .211 4.794 6.008 4.787 11.223 0 14.465 0 25.257 4.787 28.499 4.794 33.714 14.414 40 14.414 35.981 8.069 31.803 8.064 28.601 11.012 26.605 13.023 28.072 13.023 30.557 16.3 32.798 16.3 28.275 21.569 25.088 21.628 16.667 25.178 14.599 27.063 16.076 27.063 18.514 24.831 20.043 24.831 20.063 24.831 23.837 28.848 21.148 31.919 23.146 34.724 21.309 30.34 18.306 30.34 16.466 33.5 14.329 36.723 16.511 36.723 23.772 31.939 27.012 31.934 30.127 25.797 26.173 20.639 29.584 23.784 31.416 25.841 30.055 30.323 33.019 25.269 35.966 20.89 33.399 20.89 37.225 25.264 39.789 35.206 33.995 35.213 28.779 40 25.537 40 14.743"/></g></svg>

<svg xmlns="http://www.w3.org/2000/svg" width="190" height="40"><g fill="none" fill-rule="nonzero"><path fill="#FFF" d="M56 30.704V10.34h8.492c1.524 0 2.8.216 3.828.646 1.034.431 1.81 1.035 2.326 1.81.524.776.786 1.674.786 2.695 0 .775-.163 1.468-.487 2.078a4.288 4.288 0 0 1-1.343 1.501c-.57.398-1.23.676-1.978.835v.2c.822.04 1.58.261 2.277.666a4.595 4.595 0 0 1 1.69 1.69c.424.716.636 1.564.636 2.545 0 1.094-.278 2.072-.835 2.934-.557.855-1.362 1.53-2.416 2.028-1.054.49-2.334.736-3.838.736H56Zm4.922-3.968h3.043c1.067 0 1.852-.202 2.356-.606.51-.404.766-.968.766-1.69 0-.524-.123-.975-.368-1.353a2.367 2.367 0 0 0-1.044-.885c-.451-.212-.991-.318-1.621-.318h-3.132v4.852Zm0-8.024h2.724c.537 0 1.014-.09 1.432-.268.418-.18.742-.438.975-.776.238-.338.358-.745.358-1.223 0-.683-.242-1.22-.726-1.61-.484-.392-1.137-.587-1.96-.587h-2.803v4.464Zm12.552 11.992V15.43h4.723v2.784h.159c.278-1.007.732-1.756 1.362-2.247.63-.497 1.362-.746 2.197-.746.226 0 .458.017.697.05.238.027.46.07.666.13v4.225a4.653 4.653 0 0 0-.915-.189 8.109 8.109 0 0 0-.994-.07c-.577 0-1.097.13-1.561.388a2.786 2.786 0 0 0-1.084 1.064c-.259.451-.388.981-.388 1.591v8.293h-4.862Zm14.396.258c-.974 0-1.84-.162-2.595-.487a4.043 4.043 0 0 1-1.78-1.491c-.43-.67-.646-1.508-.646-2.516 0-.848.149-1.564.447-2.148a3.824 3.824 0 0 1 1.233-1.422 5.803 5.803 0 0 1 1.81-.825 11.75 11.75 0 0 1 2.187-.388c.869-.08 1.568-.162 2.098-.248.53-.093.915-.222 1.154-.388a.836.836 0 0 0 .368-.726v-.05c0-.51-.176-.904-.527-1.183-.352-.278-.826-.417-1.422-.417-.643 0-1.16.139-1.551.417a1.84 1.84 0 0 0-.746 1.154l-4.485-.16A5.303 5.303 0 0 1 84.44 17.6c.556-.736 1.319-1.313 2.287-1.73.974-.425 2.144-.637 3.51-.637a9.89 9.89 0 0 1 2.694.348c.822.226 1.538.557 2.148.995.61.43 1.08.96 1.412 1.59.338.63.507 1.35.507 2.158v10.38h-4.574v-2.127h-.12c-.271.517-.619.954-1.043 1.313a4.16 4.16 0 0 1-1.482.805c-.563.179-1.2.268-1.909.268Zm1.501-3.181c.524 0 .995-.107 1.412-.319a2.61 2.61 0 0 0 1.015-.875c.251-.378.377-.815.377-1.312v-1.452a2.89 2.89 0 0 1-.507.199c-.192.06-.404.116-.636.17-.232.052-.47.099-.716.138-.245.04-.48.077-.706.11a4.395 4.395 0 0 0-1.173.338 1.852 1.852 0 0 0-.736.596 1.46 1.46 0 0 0-.248.855c0 .504.178.889.536 1.154.365.265.826.398 1.382.398Zm9.48 2.923V15.43h4.862v15.273h-4.862Zm2.436-17.053a2.512 2.512 0 0 1-1.76-.676c-.49-.457-.736-1.007-.736-1.65 0-.637.246-1.18.736-1.631a2.491 2.491 0 0 1 1.76-.686c.689 0 1.276.229 1.76.686.49.45.736.994.736 1.63 0 .644-.246 1.194-.736 1.651-.484.45-1.071.676-1.76.676Zm9.263 8.343v8.71h-4.862V15.43h4.624v2.804h.169a4.284 4.284 0 0 1 1.73-2.197c.815-.537 1.786-.806 2.913-.806 1.074 0 2.005.242 2.794.726a4.843 4.843 0 0 1 1.85 2.009c.444.855.662 1.856.656 3.003v9.734h-4.862v-8.78c.006-.848-.209-1.511-.647-1.989-.431-.477-1.031-.715-1.799-.715-.511 0-.962.112-1.353.338a2.244 2.244 0 0 0-.895.944c-.205.411-.311.908-.318 1.492ZM125.168 30.704l-3.978-15.273h4.883l2.058 9.784h.129l2.207-9.784h4.763l2.267 9.715h.13l1.998-9.715h4.882l-3.987 15.273h-5.2l-2.387-8.899h-.169l-2.386 8.899zM149.644 30.962c-.974 0-1.839-.162-2.595-.487a4.04 4.04 0 0 1-1.78-1.491c-.431-.67-.646-1.508-.646-2.516 0-.848.149-1.564.447-2.148a3.819 3.819 0 0 1 1.233-1.422 5.805 5.805 0 0 1 1.81-.825 11.755 11.755 0 0 1 2.187-.388c.869-.08 1.568-.162 2.098-.248.531-.093.915-.222 1.154-.388a.837.837 0 0 0 .368-.726v-.05c0-.51-.176-.904-.527-1.183-.352-.278-.826-.417-1.422-.417-.643 0-1.16.139-1.551.417-.392.279-.64.663-.746 1.154l-4.485-.16a5.3 5.3 0 0 1 1.025-2.485c.556-.736 1.319-1.313 2.287-1.73.974-.425 2.144-.637 3.509-.637a9.89 9.89 0 0 1 2.695.348c.822.226 1.538.557 2.148.995.61.43 1.08.96 1.412 1.59.338.63.507 1.35.507 2.158v10.38h-4.574v-2.127h-.119c-.272.517-.62.954-1.044 1.313a4.167 4.167 0 0 1-1.482.805c-.563.179-1.2.268-1.909.268Zm1.501-3.181c.524 0 .995-.107 1.412-.319a2.608 2.608 0 0 0 1.015-.875c.251-.378.377-.815.377-1.312v-1.452c-.139.073-.308.14-.507.199-.192.06-.404.116-.636.17-.232.052-.471.099-.716.138-.245.04-.481.077-.706.11a4.397 4.397 0 0 0-1.173.338 1.852 1.852 0 0 0-.736.596 1.46 1.46 0 0 0-.249.855c0 .504.179.889.537 1.154.365.265.826.398 1.382.398ZM174.893 15.431l-5.24 15.273h-5.568l-5.23-15.273h5.121l2.814 10.52h.159l2.824-10.52zM182.285 30.992c-1.598 0-2.977-.315-4.137-.944a6.534 6.534 0 0 1-2.664-2.715c-.617-1.18-.925-2.582-.925-4.206 0-1.578.311-2.956.934-4.136a6.757 6.757 0 0 1 2.635-2.764c1.134-.663 2.47-.995 4.008-.995 1.087 0 2.081.17 2.982.507a6.407 6.407 0 0 1 2.337 1.502c.656.663 1.167 1.481 1.531 2.456.365.968.547 2.078.547 3.33v1.214h-13.274v-2.824h8.75a2.74 2.74 0 0 0-.368-1.382 2.498 2.498 0 0 0-.984-.945c-.411-.232-.885-.348-1.422-.348-.544 0-1.031.123-1.462.368a2.704 2.704 0 0 0-1.024.985c-.252.41-.384.878-.398 1.402v2.873c0 .623.123 1.17.368 1.64.246.465.594.826 1.044 1.084.451.259.988.388 1.611.388.431 0 .822-.06 1.173-.179.352-.119.653-.295.905-.527.252-.232.441-.517.567-.855l4.465.13a5.533 5.533 0 0 1-1.223 2.615c-.624.735-1.442 1.309-2.456 1.72-1.015.404-2.188.606-3.52.606Z"/><path fill="#AC6AFF" d="m35.213 11.501-.007-5.213L25.586 0v4.022L31.931 8.2l.005 3.202-2.948 1.996-2.011-1.467V9.446L23.7 7.204v4.523l-5.195 3.188-.01 8.42-3.673 2.068-1.885-1.477v-2.438l2.232-1.529v-3.793l-4.017 2.688-3.071-1.998-2.805 1.837 4.383 3.001v1.842L6.5 25.674l-3.223-2.182V16.23l4.785-3.239.004-3.116 6.137 3.952 5.158-3.433-3.145-1.835-2.057 1.388-4.482-2.964 5.054-2.947 4.379 2.567V2.775L14.736.211 4.794 6.008l-.007 5.215L0 14.465v10.792l4.787 3.242.007 5.215L14.414 40v-4.019l-6.345-4.178-.005-3.202 2.948-1.996 2.011 1.467v2.485l3.277 2.241v-4.523l5.269-3.187.059-8.421 3.55-2.068 1.885 1.477v2.438l-2.232 1.529v3.794l4.017-2.689 3.071 1.998 2.805-1.837-4.384-3.003v-1.84l3.16-2.137 3.223 2.182v7.261l-4.784 3.24-.005 3.115-6.137-3.954-5.158 3.411 3.145 1.832 2.057-1.361 4.482 2.964-5.054 2.947-4.379-2.567v3.826l4.374 2.564 9.942-5.794.007-5.216L40 25.537V14.743z"/></g></svg>
